icons/midnadark/actions/24/filename-group-tracks.svg

<?xml version="1.0" encoding="UTF-8" standalone="no"?>
<!-- Created with Inkscape (http://www.inkscape.org/) -->

<svg
   xmlns:osb="http://www.openswatchbook.org/uri/2009/osb"
   xmlns:dc="http://purl.org/dc/elements/1.1/"
   xmlns:cc="http://creativecommons.org/ns#"
   xmlns:rdf="http://www.w3.org/1999/02/22-rdf-syntax-ns#"
   xmlns:svg="http://www.w3.org/2000/svg"
   xmlns="http://www.w3.org/2000/svg"
   xmlns:sodipodi="http://sodipodi.sourceforge.net/DTD/sodipodi-0.dtd"
   xmlns:inkscape="http://www.inkscape.org/namespaces/inkscape"
   width="22"
   height="22"
   id="svg3869"
   version="1.1"
   inkscape:version="0.91 r13725"
   sodipodi:docname="filename-group-tracks.svg">
  <defs
     id="defs3871">
    <inkscape:perspective
       id="perspective4090"
       inkscape:persp3d-origin="12 : 8 : 1"
       inkscape:vp_z="24 : 12 : 1"
       inkscape:vp_y="0 : 1000 : 0"
       inkscape:vp_x="0 : 12 : 1"
       sodipodi:type="inkscape:persp3d" />
    <linearGradient
       id="linearGradient3257">
      <stop
         id="stop3259"
         style="stop-color:#a50000;stop-opacity:1"
         offset="0" />
      <stop
         id="stop3261"
         style="stop-color:#e73800;stop-opacity:1"
         offset="1" />
    </linearGradient>
    <linearGradient
       id="linearGradient4066">
      <stop
         id="stop4068"
         style="stop-color:#dbc9ee;stop-opacity:1"
         offset="0" />
      <stop
         id="stop4070"
         style="stop-color:#faf7fd;stop-opacity:1"
         offset="1" />
    </linearGradient>
    <linearGradient
       id="linearGradient3843-5">
      <stop
         offset="0"
         style="stop-color:#5a2c8b;stop-opacity:1"
         id="stop3845-0" />
      <stop
         offset="1"
         style="stop-color:#9d59cf;stop-opacity:1"
         id="stop3847-4" />
    </linearGradient>
    <inkscape:perspective
       sodipodi:type="inkscape:persp3d"
       inkscape:vp_x="0 : 12 : 1"
       inkscape:vp_y="0 : 1000 : 0"
       inkscape:vp_z="24 : 12 : 1"
       inkscape:persp3d-origin="12 : 8 : 1"
       id="perspective4090-5" />
    <inkscape:perspective
       id="perspective4090-9"
       inkscape:persp3d-origin="12 : 8 : 1"
       inkscape:vp_z="24 : 12 : 1"
       inkscape:vp_y="0 : 1000 : 0"
       inkscape:vp_x="0 : 12 : 1"
       sodipodi:type="inkscape:persp3d" />
    <linearGradient
       id="linearGradient4207"
       osb:paint="gradient">
      <stop
         style="stop-color:#3498db;stop-opacity:1;"
         offset="0"
         id="stop3371" />
      <stop
         style="stop-color:#3498db;stop-opacity:0;"
         offset="1"
         id="stop3373" />
    </linearGradient>
  </defs>
  <sodipodi:namedview
     id="base"
     pagecolor="#ffffff"
     bordercolor="#666666"
     borderopacity="1.0"
     inkscape:pageopacity="0.0"
     inkscape:pageshadow="2"
     inkscape:zoom="16"
     inkscape:cx="-14.03125"
     inkscape:cy="9.6306838"
     inkscape:document-units="px"
     inkscape:current-layer="layer1"
     showgrid="true"
     fit-margin-top="0"
     fit-margin-left="0"
     fit-margin-right="0"
     fit-margin-bottom="0"
     inkscape:window-width="1366"
     inkscape:window-height="633"
     inkscape:window-x="0"
     inkscape:window-y="33"
     inkscape:window-maximized="1"
     inkscape:showpageshadow="false"
     inkscape:snap-bbox="true"
     inkscape:object-nodes="true"
     showguides="true"
     inkscape:guide-bbox="true">
    <inkscape:grid
       type="xygrid"
       id="grid4132" />
    <sodipodi:guide
       position="2,20.000017"
       orientation="18,0"
       id="guide4138" />
    <sodipodi:guide
       position="2,2.0000174"
       orientation="0,18"
       id="guide4140" />
    <sodipodi:guide
       position="20,2.0000174"
       orientation="-18,0"
       id="guide4142" />
    <sodipodi:guide
       position="20,20.000017"
       orientation="0,-18"
       id="guide4144" />
    <sodipodi:guide
       position="3,3.0000174"
       orientation="0,16"
       id="guide4148" />
    <sodipodi:guide
       position="19,19.000017"
       orientation="0,-16"
       id="guide4152" />
    <sodipodi:guide
       position="3,15"
       orientation="1,0"
       id="guide4484" />
  </sodipodi:namedview>
  <metadata
     id="metadata3874">
    <rdf:RDF>
      <cc:Work
         rdf:about="">
        <dc:format>image/svg+xml</dc:format>
        <dc:type
           rdf:resource="http://purl.org/dc/dcmitype/StillImage" />
        <dc:title />
      </cc:Work>
    </rdf:RDF>
  </metadata>
  <g
     inkscape:label="Capa 1"
     inkscape:groupmode="layer"
     id="layer1"
     transform="translate(-326,-534.3622)">
    <g
       id="layer1-47"
       inkscape:label="Capa 1"
       style="fill:#ffffff;fill-opacity:1">
      <g
         inkscape:label="Capa 1"
         id="layer1-286"
         transform="translate(-30.215497,14.558443)"
         style="fill:#ffffff;fill-opacity:1">
        <g
           id="g4369"
           transform="translate(27.682101,0.12839698)"
           style="fill:#ffffff;fill-opacity:1">
          <g
             id="g4382-1"
             transform="translate(22.659906,-5.9301729)"
             style="fill:#ffffff;fill-opacity:1" />
          <g
             id="g4486-5"
             transform="matrix(0.97603016,0,0,-0.97603016,8.9380976,1042.0695)"
             style="fill:#ffffff;fill-opacity:1">
            <g
               transform="translate(-1.0245585,-1.0245243)"
               id="g4196"
               style="fill:#ffffff;fill-opacity:1">
              <g
                 transform="translate(0,2.1929912e-5)"
                 id="g4830"
                 style="fill:#ffffff;fill-opacity:1">
                <g
                   transform="matrix(1.0245585,0,0,-1.0245585,-5.5374294,1083.7332)"
                   id="layer1-2"
                   inkscape:label="Capa 1"
                   style="fill:#ffffff;fill-opacity:1">
                  <g
                     inkscape:label="Capa 1"
                     id="layer1-9-1"
                     transform="matrix(1.3409571,0,0,1.3409571,-483.62356,-163.95726)"
                     style="fill:#ffffff;fill-opacity:1">
                    <g
                       style="fill:#ffffff;fill-opacity:1"
                       transform="matrix(0.01949637,0,0,0.01949637,606.00265,522.99918)"
                       id="g3-3">
                      <g
                         style="fill:#ffffff;fill-opacity:1"
                         id="web_-_browser_tab">
                        <g
                           style="fill:#ffffff;fill-opacity:1"
                           id="g6">
                          <path
                             style="fill:#ffffff;fill-opacity:1"
                             d="M 8 3 C 7.4479999 3 7 3.4479999 7 4 L 7 5 L 8 5 L 8 4.5 C 8 4.2239999 8.2239999 4 8.5 4 L 17.5 4 C 17.776 4 18 4.2239999 18 4.5 L 18 13.5 C 18 13.776 17.776 14 17.5 14 L 17 14 L 17 15 L 18 15 C 18.552 15 19 14.552 19 14 L 19 4 C 19 3.4479999 18.552 3 18 3 L 8 3 z M 4 6 C 3.4479999 6 3 6.4479999 3 7 L 3 18 C 3 18.552 3.4479999 19 4 19 L 15 19 C 15.552 19 16 18.552 16 18 L 16 7 C 16 6.4479999 15.552 6 15 6 L 4 6 z M 7.9355469 9.1992188 C 8.3092239 9.1992188 8.6132812 9.5033041 8.6132812 9.8769531 L 8.6132812 10.558594 L 10.1875 10.558594 L 10.1875 9.8769531 C 10.1875 9.5033041 10.491361 9.1992188 10.865234 9.1992188 C 11.238883 9.1992188 11.542969 9.5033041 11.542969 9.8769531 L 11.542969 10.558594 L 12.222656 10.558594 C 12.596249 10.558594 12.900391 10.862483 12.900391 11.236328 C 12.900391 11.609977 12.596221 11.914062 12.222656 11.914062 L 11.542969 11.914062 L 11.542969 13.486328 L 12.222656 13.486328 C 12.596361 13.486328 12.900391 13.79047 12.900391 14.164062 C 12.900391 14.537655 12.596389 14.841797 12.222656 14.841797 L 11.542969 14.841797 L 11.542969 15.521484 C 11.542969 15.895358 11.239024 16.199219 10.865234 16.199219 C 10.491641 16.199219 10.1875 15.895358 10.1875 15.521484 L 10.1875 14.841797 L 8.6132812 14.841797 L 8.6132812 15.521484 C 8.6132813 15.895358 8.3092239 16.199219 7.9355469 16.199219 C 7.5617297 16.199219 7.2578125 15.895358 7.2578125 15.521484 L 7.2578125 14.841797 L 6.578125 14.841797 C 6.2044479 14.841797 5.9003906 14.537655 5.9003906 14.164062 C 5.9003906 13.79047 6.2044479 13.486328 6.578125 13.486328 L 7.2578125 13.486328 L 7.2578125 11.914062 L 6.578125 11.914062 C 6.2044479 11.914062 5.9003906 11.609977 5.9003906 11.236328 C 5.9003906 10.862511 6.2044479 10.558594 6.578125 10.558594 L 7.2578125 10.558594 L 7.2578125 9.8769531 C 7.2578125 9.5033041 7.5617297 9.1992188 7.9355469 9.1992188 z "
                             transform="matrix(38.249993,0,0,38.249993,-114.74992,-114.74992)"
                             id="path8" />
                        </g>
                      </g>
                    </g>
                  </g>
                </g>
                <g
                   id="g4177"
                   transform="matrix(1.6,0,0,1.6,-209.75477,-307.25267)"
                   style="fill:#ffffff;fill-opacity:1">
                  <g
                     inkscape:label="Capa 1"
                     id="layer1-4"
                     transform="matrix(1.0245585,0,0,-1.0245585,-6.5619915,1082.7087)"
                     style="fill:#ffffff;fill-opacity:1">
                    <g
                       transform="translate(-0.99999575,0.99999972)"
                       id="layer1-5-7"
                       inkscape:label="Capa 1"
                       style="fill:#ffffff;fill-opacity:1">
                      <g
                         inkscape:label="Capa 1"
                         id="layer1-9-7"
                         transform="matrix(0.97524152,0,0,0.97524152,-259.54441,29.220778)"
                         style="fill:#ffffff;fill-opacity:1">
                        <g
                           id="g4162-5"
                           transform="translate(-0.13028837,-0.17561717)"
                           style="fill:#ffffff;fill-opacity:1" />
                      </g>
                    </g>
                  </g>
                  <g
                     transform="matrix(0.21344969,0,0,-0.21344969,256.88337,632.60788)"
                     id="layer1-74"
                     inkscape:label="Capa 1"
                     style="fill:#ffffff;fill-opacity:1">
                    <g
                       inkscape:label="Capa 1"
                       id="layer1-6-5"
                       transform="matrix(0.52173913,0,0,0.52173913,187.40373,258.51209)"
                       style="fill:#ffffff;fill-opacity:1">
                      <g
                         id="g4280-9"
                         transform="matrix(1.15,0,0,1.15,-61.285728,-78.569705)"
                         style="fill:#ffffff;fill-opacity:1" />
                    </g>
                  </g>
                </g>
              </g>
            </g>
            <g
               transform="matrix(0.63644685,0,0,-0.63644685,365.84707,1180.0248)"
               id="layer1-6"
               inkscape:label="Capa 1"
               style="fill:#ffffff;fill-opacity:1;stroke:none" />
          </g>
        </g>
      </g>
    </g>
    <g
       id="g4161"
       transform="matrix(1.4,0,0,1.4,-117.79504,-219.648)">
      <g
         style="fill:#ffffff;fill-opacity:1"
         inkscape:label="Capa 1"
         id="layer1-58"
         transform="matrix(0.31250001,0,0,0.31250001,218.08584,377.53695)">
        <g
           style="fill:#ffffff;fill-opacity:1"
           transform="matrix(1.00004,0,0,1.00004,-226.61766,-49.726823)"
           id="layer1-0"
           inkscape:label="Capa 1">
          <g
             transform="matrix(0.06404355,0,0,0.06404355,556.59508,586.06526)"
             style="fill:#ffffff;fill-opacity:1"
             id="g3">
            <path
               sodipodi:nodetypes="ccccc"
               inkscape:connector-curvature="0"
               style="fill:#ffffff;fill-opacity:1"
               id="path5"
               d="m 86.093,163.744 77.646,0 0,-77.657 -77.646,0 z" />
          </g>
        </g>
      </g>
    </g>
  </g>
</svg>

<svg xmlns="http://www.w3.org/2000/svg" viewBox="0 0 22 22"><g fill="#fff"><path d="m8 3c-.552 0-1 .448-1 1v1h1v-.5c0-.276.224-.5.5-.5h9c.276 0 .5.224.5.5v9c0 .276-.224.5-.5.5h-.5v1h1c.552 0 1-.448 1-1v-10c0-.552-.448-1-1-1h-10m-4 3c-.552 0-1 .448-1 1v11c0 .552.448 1 1 1h11c.552 0 1-.448 1-1v-11c0-.552-.448-1-1-1h-11m3.936 3.199c.374 0 .678.304.678.678v.682h1.574v-.682c0-.374.304-.678.678-.678.374 0 .678.304.678.678v.682h.68c.374 0 .678.304.678.678 0 .374-.304.678-.678.678h-.68v1.572h.68c.374 0 .678.304.678.678 0 .374-.304.678-.678.678h-.68v.68c0 .374-.304.678-.678.678-.374 0-.678-.304-.678-.678v-.68h-1.574v.68c0 .374-.304.678-.678.678-.374 0-.678-.304-.678-.678v-.68h-.68c-.374 0-.678-.304-.678-.678 0-.374.304-.678.678-.678h.68v-1.572h-.68c-.374 0-.678-.304-.678-.678 0-.374.304-.678.678-.678h.68v-.682c0-.374.304-.678.678-.678" transform="matrix(.99985 0 0 .99985.0001.008)"/><path d="m86.09 163.74h77.65v-77.66h-77.65z" transform="matrix(.02802 0 0 .02802 5.9 9.198)"/></g></svg>
